X:460
T:New Whitehall. (p).1701.PLFD.460
M:6/4
L:1/4
Q:3/4=100
S:Playford, Dancing Master,11th Ed.,1701.
O:England
Z:Chris Partington.
K:Bb
A|B2Gd2A|B2G(A/B/)cA|B>edB>AG|G3-G2:|
|:g|^f2d=e/f/gd|e2c(d/e/f)c|d>gfd>cB|B3-B2:|
|:D|=E/F/GD=E2G|(A/B/)cAd2B|c/d/edB>AG|G3-G2:|
